X: 1327
T: Charlie Doran's Original Barn Dance
B: australian traditional tunes wiki
M:4/4
L:1/8
R: Schottische
Q: 1/4=100
K:D
V:1 
|:"D"F2F2F2F2|(3FAF E>G B>A F>D|"A7"E2E2E2E2|(3EGE D>E F>E C>A,|
"D"F2F2F2F2|(3FAF E>G B>A F>D|"A7"E2c>B A>G F>E|"fine""D"D4d4||
d2d2(3cec d>c|"A7"B2f2f2(3ABc|"D"d2-d>e f>e d>e|"D"f2A2A>B (3cBA|
"G"g2g2g>f e>d|"D"f2f2f>e d>e|f2e2d2(3cec|1"A7"B2A2"D" a2 (3DED:|2"A7"B2A2"D" a2||
% abcbook-tune_id 6342d53a18735931e1413482


% abcbook-boost 0
% abcbook-tablature 
% abcbook-transpose 
% abcbook-lastupdated 1665324359303
% abcbook-soundfonts 
% abcbook-repeats 1
% NFF Book 2020

